recipes/hangouts/icon.svg

<svg height="80" viewBox="0 0 80 80" width="80" xmlns="http://www.w3.org/2000/svg" xmlns:xlink="http://www.w3.org/1999/xlink"><mask id="a" fill="#fff"><path d="m0 .42075676h68.2585946v79.57924324h-68.2585946" fill="#fff" fill-rule="evenodd"/></mask><g fill="none" fill-rule="evenodd" transform="translate(6)"><path d="m45.7967135 49.1304649c-.0501621.0138378-.1007567.0285405-.1513513.0423783-.028973.0164325-.0575136.0328649-.0864865.0488649-.7705946.217946-1.5481081.3987027-2.3429189.515027-.6067027.0890811-1.0646487-.2534054-1.0715676-.8631351-.0056216-.4276757-.0090811-.8549189-.0125406-1.283027.006919-.7654054.0147028-1.5312433.0216217-2.2970811-.0034595-.1686487-.009946-.3368649-.0095135-.5050811.0008648-.5881081.2274594-.8358919.9582702-1.0032432.9267027-.2123244 1.7993514-.5115676 2.5210811-1.1818379.8661622-.8047567 1.3029189-1.808 1.5018378-2.9427027-2.5011891-.0051892-5.0019459-.0099459-7.5031351-.0147027-.272-.0004324-.5444324.0034595-.8164324-.0012973-1.0218379-.0168648-1.7206487-.7225946-1.7202162-1.7496216.0012973-4.0436757.0064864-8.0873513.0099459-12.131027 0-.0389189-.0043243-.0774054-.0069189-.1163243-.0782703-.7567568.1392432-1.3764325.8112432-1.7976217.2616217-.1638919.5452973-.2317838.8458379-.2317838 3.955027-.0021621 7.9096216.0012973 11.8650811-.003027 1.0529729-.0012973 1.9256216 1.0611892 1.5883243 2.1003243.08.1963244.0661621.4030271.0661621.6084325 0 4.4691892.0021622 8.9383784-.0012973 13.408-.0034594 3.9926486-2.5055135 7.7288648-6.1937297 9.2627027-.0938378.0384865-.182054.0903784-.2728649.1357838.0652973.0812973.144.1042162.2257298.1068108-.0817298-.0025946-.1608649-.0255135-.2261622-.1068108m-22.0263784.2845405c-.5859459.1591351-1.1835675.2503784-1.7807567.3377297-.4618379.0678919-.7623784-.1885405-.9349189-.6058378.0017297-1.2843243.003027-2.5677838.0047567-3.8521081.0220541-.377946-.1297297-.7827027.172973-1.1165406.150054-.1651891.3204324-.278054.550054-.336.672-.169081 1.353946-.3048648 1.9662703-.6698378 1.1282162-.6732973 1.8300541-1.644973 2.140973-2.912.0488649-.1993513.0947027-.4.1414054-.5997838-2.7078919-.0051892-5.4153514-.0103784-8.1232433-.0138378-.2343783-.0004324-.4652972-.0082162-.6931891-.0717838-.6897298-.1915676-1.2185946-.8211892-1.2194595-1.532973-.0051892-4.0938378.0025946-8.1885405.0056216-12.2832432-.0566486-.6538378.0004325-1.267027.5509189-1.7349189.2988109-.2525406.6270271-.4064865 1.0201081-.4064865 3.9814055-.0008649 7.9628109.0021621 11.9442163-.0021622 1.0534054-.0012973 1.926054 1.0611892 1.5887567 2.1003243.0812973.1963244.0661622.4034595.0661622.6088649.0008648 4.4618378.0255135 8.9241081-.0077838 13.385946-.0220541 2.9604324-1.1749189 5.4512432-3.3418378 7.4702702-.1128649.1050811-.2222703.2144865-.3334054.3217298-1.1243244.8609729-2.3398919 1.5398918-3.7176217 1.9126486m43.9580541-20.9223784c-1.2077838-6.5846486-4.0912433-12.3368648-8.6460541-17.2449729-1.923027-2.07221626-4.0765405-3.87329734-6.4544865-5.40194599-4.4285405-2.84713514-9.2536216-4.59113514-14.4856216-5.20951351-.6378378-.07524325-1.2847567-.06572973-1.9135135-.21578379h-4.5145946c-.0492973.11372973-.1539459.07221622-.2365405.07956757-1.161946.10291892-2.3195676.23481081-3.465946.45232432-8.3835675 1.58875676-15.2683243 5.70464865-20.59718916 12.3537297-4.38313513 5.4685406-6.79697297 11.7414054-7.31848648 18.7355676-.25254054 3.3894054-.00735135 6.7481081.73556756 10.060973.55221622 2.4652973 1.37556757 4.8462702 2.4838919 7.1225946.09686486.1937297.19372973.3878919.29189189.5807567 1.82010811 3.5844325 4.16172973 6.777946 7.09578379 9.5364325 1.5450811 1.4525405 3.1952432 2.7658378 4.9833513 3.9009729 5.4763244 3.4758919 11.4542703 5.2985946 17.9485406 5.3803244.3982703.0051891.5068108.1037837.5046486.5107027-.0181621 3.4758918-.0108108 6.9522162-.0099459 10.4285405.0004324.1349189.0112432.2694054.0185946.4371892.112-.0462703.1824865-.0717838.2508108-.1037838 6.528-3.0672432 12.5228108-6.9431351 17.8672432-11.8015135 1.0633514-.9669189 2.0808649-1.9796757 3.0594595-3.033946.419027-.451027.8341622-.9102702 1.2544865-1.3604324.6486486-.6936216 1.2099459-1.468973 1.8218378-2.1989189.7057297-.8423784 1.3396757-1.7375135 1.964973-2.6387027 1.3829189-1.9917838 2.6170811-4.0696216 3.6549189-6.2646487.524973-1.110054 1.0252973-2.2283243 1.4672433-3.3725405.0147027-.0216216.0345945-.0406486.0436756-.0644324 1.2056217-3.1342703 1.9783784-6.3775135 2.3900541-9.7055135.1435676-1.1584865.2365405-2.3251892.2949189-3.4905946.1254054-2.5076757-.0367568-5.0032433-.4895135-7.4724325" fill="#67ba46" mask="url(#a)"/><path d="m45.5589622 49.2217081c-.7705946.217946-1.5481081.3987027-2.342919.515027-.6067027.0890811-1.0646486-.2534054-1.0715675-.8631351-.0056216-.4276757-.0090811-.8549189-.012973-1.2825946.0073514-.7658378.0147027-1.5316757.0220541-2.2979459.2205405-.5111352.6979459-.6041081 1.1636756-.7091892 2.1612973-.4877838 3.4858379-1.8988108 3.7976217-4.0830271.0389189-.2724324.2062702-.5591351.0103783-.8402162-2.5011892-.0051892-5.0019459-.0099459-7.5031351-.0147027-.272-.0004324-.5444324.0034595-.8164324-.0008648-1.0218379-.0172973-1.7210811-.7230271-1.7206487-1.7500541.0012973-4.0436757.0069189-8.0873513.0103784-12.131027 0-.0389189-.0043243-.0774054-.0069189-.1163243.1089729-.0475676.1167567-.1617298.1656216-.2495136.3377297-.6028108.8419459-.9275675 1.5442162-.9275675 3.9251892.0008648 7.8508108-.0012973 11.776.0021621.7982703.0004325 1.3976216.4678919 1.6246487 1.2428108.08.1963244.0661621.4030271.0661621.6084325 0 4.4691892.0021622 8.9383784-.0012973 13.408-.0034594 3.9926486-2.5055135 7.7288648-6.1937297 9.2627027-.0938378.0384865-.1820541.0903784-.2728649.1357838-.0505946.0138378-.1016216.0285405-.1522162.0423783-.0285405.0164325-.0575135.0328649-.086054.0488649" fill="#fefefe"/><path d="m27.4880432 47.5025297c-1.1247567.8605406-2.3398918 1.5398919-3.7176216 1.9126487-.5859459.1591351-1.1835675.2503784-1.7807567.3377297-.4618379.0674595-.7628108-.1885405-.934919-.6058378.0017298-1.2843244.0030271-2.5682162.0047568-3.8521081.2118919-.4921081.6655135-.5941622 1.12-.6988108 2.1954595-.5063784 3.4542703-1.8157838 3.8300541-4.022919.0497297-.2931892.2162162-.6058378.0216216-.9128648-2.7078919-.0047568-5.4157838-.009946-8.1232433-.0134054-.2343783-.0004325-.4652973-.0086487-.6931892-.0717838-.6901621-.1915676-1.2185945-.8211892-1.2194594-1.532973-.0051892-4.0942703.0025946-8.1885405.0056216-12.2832432.2918919-.7636757.7891892-1.2825946 1.6562162-1.2843244 3.9532973-.0077837 7.9078919-.0056216 11.8611892-.0012973.768.0008649 1.3725406.4882163 1.5861622 1.241946.0817297.1963243.0665946.4038919.0665946.6088649.0008648 4.4622702.0255135 8.9245405-.0077838 13.3859459-.0220541 2.9608649-1.1749189 5.4516757-3.3418379 7.4707027-.1128648.1050811-.2222702.2144865-.3334054.3217297" fill="#fefefe"/><g fill="#50a245"><path d="m31.1046054 25.715373c-.2136216-.7537298-.8185946-1.2410811-1.5861622-1.241946-3.9537297-.0043243-7.9078918-.0064865-11.8616216.0012973-.867027.0017298-1.3638919.5206487-1.6562162 1.2843243-.0566486-.6542702.0004324-1.2674594.5513514-1.7349189.2988108-.2529729.627027-.4069189 1.0196756-.4069189 3.9814054-.0008649 7.9628108.0021622 11.9442162-.0017297 1.0538379-.0012973 1.9260541 1.0611892 1.5887568 2.0998919"/><path d="m52.1987459 25.715373c-.2265945-.7749189-.8259459-1.2423784-1.6246486-1.2428108-3.9251892-.0034595-7.8503784-.0012973-11.7755676-.0021622-.7022702 0-1.2064865.3247568-1.5446486.928-.0488649.0877838-.0562162.2015135-.1651892.2495135-.0787027-.7567567.1388108-1.3768649.8112432-1.7976216.2611892-.1638919.5448649-.2322162.8458379-.2322162 3.9545946-.0017298 7.9096216.0012973 11.8646486-.0025946 1.0534054-.0012973 1.9256216 1.0611892 1.5883243 2.0998919"/><path d="m47.1252757 39.6604541c.1958919.281081.0281081.5677837-.0103784.8402162-.3117838 2.1842162-1.6363243 3.5956756-3.7976216 4.0834594-.4657298.1050811-.9431352.1980541-1.1636757.7087568-.0034595-.1677838-.0099459-.3364324-.0099459-.5046487.0008648-.5881081.2278918-.8354594.9582702-1.0032432.9271352-.2123243 1.7993514-.5115676 2.5210811-1.1814054.8661622-.8051892 1.3033514-1.8084324 1.5022703-2.9431351"/><path d="m26.0310919 39.6604541c.1945946.307027.0285405.6196756-.0216216.9124324-.3757838 2.2075676-1.6345946 3.516973-3.8300541 4.0233513-.4544865.1046487-.9081081.2067027-1.12.6983784.0220541-.3779459-.1297297-.7822703.172973-1.1165405.150054-.1651892.3204324-.2776216.550054-.3355676.6724325-.1695135 1.353946-.3048649 1.9662703-.6702703 1.1282162-.6732973 1.8300541-1.6449729 2.140973-2.9115675.0488649-.1993514.0947027-.4.1414054-.6002162"/></g></g></svg>

<?xml version="1.0" encoding="UTF-8" standalone="no"?>
<svg width="80px" height="80px" viewBox="0 0 80 80" version="1.1" xmlns="http://www.w3.org/2000/svg" xmlns:xlink="http://www.w3.org/1999/xlink">
    <!-- Generator: Sketch 3.7.2 (28276) - http://www.bohemiancoding.com/sketch -->
    <title>hangouts</title>
    <desc>Created with Sketch.</desc>
    <defs>
        <polyline id="path-1" points="0 0.420756757 68.2585946 0.420756757 68.2585946 80 0 80"></polyline>
    </defs>
    <g id="icons" stroke="none" stroke-width="1" fill="none" fill-rule="evenodd">
        <g id="hangouts">
            <g id="Page-1" transform="translate(6.000000, 0.000000)">
                <g id="Group-3">
                    <mask id="mask-2" fill="white">
                        <use xlink:href="#path-1"></use>
                    </mask>
                    <g id="Clip-2"></g>
                    <path d="M45.7967135,49.1304649 C45.7465514,49.1443027 45.6959568,49.1590054 45.6453622,49.1728432 C45.6163892,49.1892757 45.5878486,49.2057081 45.5588757,49.2217081 C44.7882811,49.4396541 44.0107676,49.6204108 43.2159568,49.7367351 C42.6092541,49.8258162 42.1513081,49.4833297 42.1443892,48.8736 C42.1387676,48.4459243 42.1353081,48.0186811 42.1318486,47.590573 C42.1387676,46.8251676 42.1465514,46.0593297 42.1534703,45.2934919 C42.1500108,45.1248432 42.1435243,44.956627 42.1439568,44.7884108 C42.1448216,44.2003027 42.3714162,43.9525189 43.102227,43.7851676 C44.0289297,43.5728432 44.9015784,43.2736 45.6233081,42.6033297 C46.4894703,41.798573 46.926227,40.7953297 47.1251459,39.660627 C44.6239568,39.6554378 42.1232,39.6506811 39.6220108,39.6459243 C39.3500108,39.6454919 39.0775784,39.6493838 38.8055784,39.644627 C37.7837405,39.6277622 37.0849297,38.9220324 37.0853622,37.8950054 C37.0866595,33.8513297 37.0918486,29.8076541 37.0953081,25.7639784 C37.0953081,25.7250595 37.0909838,25.686573 37.0883892,25.6476541 C37.0101189,24.8908973 37.2276324,24.2712216 37.8996324,23.8500324 C38.1612541,23.6861405 38.4449297,23.6182486 38.7454703,23.6182486 C42.7004973,23.6160865 46.6550919,23.6195459 50.6105514,23.6152216 C51.6635243,23.6139243 52.536173,24.6764108 52.1988757,25.7155459 C52.2788757,25.9118703 52.2650378,26.118573 52.2650378,26.3239784 C52.2650378,30.7931676 52.2672,35.2623568 52.2637405,39.7319784 C52.2602811,43.724627 49.758227,47.4608432 46.0700108,48.9946811 C45.976173,49.0331676 45.8879568,49.0850595 45.7971459,49.1304649 C45.8624432,49.2117622 45.9411459,49.2346811 46.0228757,49.2372757 C45.9411459,49.2346811 45.8620108,49.2117622 45.7967135,49.1304649 M23.7703351,49.4150054 C23.1843892,49.5741405 22.5867676,49.6653838 21.9895784,49.7527351 C21.5277405,49.820627 21.2272,49.5641946 21.0546595,49.1468973 C21.0563892,47.862573 21.0576865,46.5791135 21.0594162,45.2947892 C21.0814703,44.9168432 20.9296865,44.5120865 21.2323892,44.1782486 C21.3824432,44.0130595 21.5528216,43.9001946 21.7824432,43.8422486 C22.4544432,43.6731676 23.1363892,43.5373838 23.7487135,43.1724108 C24.8769297,42.4991135 25.5787676,41.5274378 25.8896865,40.2604108 C25.9385514,40.0610595 25.9843892,39.8604108 26.0310919,39.660627 C23.3232,39.6554378 20.6157405,39.6502486 17.9078486,39.6467892 C17.6734703,39.6463568 17.4425514,39.638573 17.2146595,39.5750054 C16.5249297,39.3834378 15.9960649,38.7538162 15.9952,38.0420324 C15.9900108,33.9481946 15.9977946,29.8534919 16.0008216,25.7587892 C15.944173,25.1049514 16.0012541,24.4917622 16.5517405,24.0238703 C16.8505514,23.7713297 17.1787676,23.6173838 17.5718486,23.6173838 C21.5532541,23.6165189 25.5346595,23.6195459 29.5160649,23.6152216 C30.5694703,23.6139243 31.4421189,24.6764108 31.1048216,25.7155459 C31.1861189,25.9118703 31.1709838,26.1190054 31.1709838,26.3244108 C31.1718486,30.7862486 31.1964973,35.2485189 31.1632,39.7103568 C31.1411459,42.6707892 29.9882811,45.1616 27.8213622,47.180627 C27.7084973,47.2857081 27.5990919,47.3951135 27.4879568,47.5023568 C26.3636324,48.3633297 25.1480649,49.0422486 23.7703351,49.4150054 M67.7283892,28.492627 C66.5206054,21.9079784 63.6371459,16.1557622 59.0823351,11.2476541 C57.1593081,9.17543784 55.0057946,7.37435676 52.6278486,5.84570811 C48.1993081,2.99857297 43.374227,1.25457297 38.142227,0.636194595 C37.5043892,0.560951351 36.8574703,0.570464865 36.2287135,0.420410811 L31.7141189,0.420410811 C31.6648216,0.534140541 31.560173,0.492627027 31.4775784,0.499978378 C30.3156324,0.602897297 29.1580108,0.734789189 28.0116324,0.952302703 C19.6280649,2.54105946 12.7433081,6.65695135 7.41444324,13.3060324 C3.03130811,18.774573 0.61747027,25.0474378 0.0959567568,32.0416 C-0.156583784,35.4310054 0.0886054054,38.7897081 0.831524324,42.102573 C1.38374054,44.5678703 2.20709189,46.9488432 3.31541622,49.2251676 C3.41228108,49.4188973 3.50914595,49.6130595 3.60730811,49.8059243 C5.42741622,53.3903568 7.76903784,56.5838703 10.7030919,59.3423568 C12.248173,60.7948973 13.8983351,62.1081946 15.6864432,63.2433297 C21.1627676,66.7192216 27.1407135,68.5419243 33.6349838,68.6236541 C34.0332541,68.6288432 34.1417946,68.7274378 34.1396324,69.1343568 C34.1214703,72.6102486 34.1288216,76.086573 34.1296865,79.5628973 C34.1301189,79.6978162 34.1409297,79.8323027 34.1482811,80.0000865 C34.2602811,79.9538162 34.3307676,79.9283027 34.3990919,79.8963027 C40.9270919,76.8290595 46.9219027,72.9531676 52.2663351,68.0947892 C53.3296865,67.1278703 54.3472,66.1151135 55.3257946,65.0608432 C55.7448216,64.6098162 56.1599568,64.150573 56.5802811,63.7004108 C57.2289297,63.0067892 57.790227,62.2314378 58.4021189,61.5014919 C59.1078486,60.6591135 59.7417946,59.7639784 60.3670919,58.8627892 C61.7500108,56.8710054 62.984173,54.7931676 64.0220108,52.5981405 C64.5469838,51.4880865 65.0473081,50.3698162 65.4892541,49.2256 C65.5039568,49.2039784 65.5238486,49.1849514 65.5329297,49.1611676 C66.7385514,46.0268973 67.5113081,42.7836541 67.9229838,39.4556541 C68.0665514,38.2971676 68.1595243,37.1304649 68.2179027,35.9650595 C68.3433081,33.4573838 68.1811459,30.9618162 67.7283892,28.492627" id="Fill-1" fill="#67BA46" mask="url(#mask-2)"></path>
                </g>
                <path d="M45.5589622,49.2217081 C44.7883676,49.4396541 44.0108541,49.6204108 43.2160432,49.7367351 C42.6093405,49.8258162 42.1513946,49.4833297 42.1444757,48.8736 C42.1388541,48.4459243 42.1353946,48.0186811 42.1315027,47.5910054 C42.1388541,46.8251676 42.1462054,46.0593297 42.1535568,45.2930595 C42.3740973,44.7819243 42.8515027,44.6889514 43.3172324,44.5838703 C45.4785297,44.0960865 46.8030703,42.6850595 47.1148541,40.5008432 C47.153773,40.2284108 47.3211243,39.9417081 47.1252324,39.660627 C44.6240432,39.6554378 42.1232865,39.6506811 39.6220973,39.6459243 C39.3500973,39.6454919 39.0776649,39.6493838 38.8056649,39.6450595 C37.783827,39.6277622 37.0845838,38.9220324 37.0850162,37.8950054 C37.0863135,33.8513297 37.0919351,29.8076541 37.0953946,25.7639784 C37.0953946,25.7250595 37.0910703,25.686573 37.0884757,25.6476541 C37.1974486,25.6000865 37.2052324,25.4859243 37.2540973,25.3981405 C37.591827,24.7953297 38.0960432,24.470573 38.7983135,24.470573 C42.7235027,24.4714378 46.6491243,24.4692757 50.5743135,24.4727351 C51.3725838,24.4731676 51.9719351,24.940627 52.1989622,25.7155459 C52.2789622,25.9118703 52.2651243,26.118573 52.2651243,26.3239784 C52.2651243,30.7931676 52.2672865,35.2623568 52.263827,39.7319784 C52.2603676,43.724627 49.7583135,47.4608432 46.0700973,48.9946811 C45.9762595,49.0331676 45.8880432,49.0850595 45.7972324,49.1304649 C45.7466378,49.1443027 45.6956108,49.1590054 45.6450162,49.1728432 C45.6164757,49.1892757 45.5875027,49.2057081 45.5589622,49.2217081" id="Fill-4" fill="#FEFEFE"></path>
                <path d="M27.4880432,47.5025297 C26.3632865,48.3630703 25.1481514,49.0424216 23.7704216,49.4151784 C23.1844757,49.5743135 22.5868541,49.6655568 21.9896649,49.7529081 C21.527827,49.8203676 21.2268541,49.5643676 21.0547459,49.1470703 C21.0564757,47.8627459 21.057773,46.5788541 21.0595027,45.2949622 C21.2713946,44.8028541 21.7250162,44.7008 22.1795027,44.5961514 C24.3749622,44.089773 25.633773,42.7803676 26.0095568,40.5732324 C26.0592865,40.2800432 26.225773,39.9673946 26.0311784,39.6603676 C23.3232865,39.6556108 20.6153946,39.6504216 17.9079351,39.6469622 C17.6735568,39.6465297 17.4426378,39.6383135 17.2147459,39.5751784 C16.5245838,39.3836108 15.9961514,38.7539892 15.9952865,38.0422054 C15.9900973,33.9479351 15.9978811,29.8536649 16.0009081,25.7589622 C16.2928,24.9952865 16.7900973,24.4763676 17.6571243,24.4746378 C21.6104216,24.4668541 25.5650162,24.4690162 29.5183135,24.4733405 C30.2863135,24.4742054 30.8908541,24.9615568 31.1044757,25.7152865 C31.1862054,25.9116108 31.1710703,26.1191784 31.1710703,26.3241514 C31.1719351,30.7864216 31.1965838,35.2486919 31.1632865,39.7100973 C31.1412324,42.6709622 29.9883676,45.161773 27.8214486,47.1808 C27.7085838,47.2858811 27.5991784,47.3952865 27.4880432,47.5025297" id="Fill-6" fill="#FEFEFE"></path>
                <path d="M31.1046054,25.715373 C30.8909838,24.9616432 30.2860108,24.4742919 29.5184432,24.473427 C25.5647135,24.4691027 21.6105514,24.4669405 17.6568216,24.4747243 C16.7897946,24.4764541 16.2929297,24.995373 16.0006054,25.7590486 C15.9439568,25.1047784 16.0010378,24.4915892 16.5519568,24.0241297 C16.8507676,23.7711568 17.1789838,23.6172108 17.5716324,23.6172108 C21.5530378,23.6163459 25.5344432,23.619373 29.5158486,23.6154811 C30.5696865,23.6141838 31.4419027,24.6766703 31.1046054,25.715373" id="Fill-8" fill="#50A245"></path>
                <path d="M52.1987459,25.715373 C51.9721514,24.9404541 51.3728,24.4729946 50.5740973,24.4725622 C46.6489081,24.4691027 42.7237189,24.4712649 38.7985297,24.4704 C38.0962595,24.4704 37.5920432,24.7951568 37.2538811,25.3984 C37.2050162,25.4861838 37.1976649,25.5999135 37.0886919,25.6479135 C37.0099892,24.8911568 37.2275027,24.2710486 37.8999351,23.8502919 C38.1611243,23.6864 38.4448,23.6180757 38.745773,23.6180757 C42.7003676,23.6163459 46.6553946,23.619373 50.6104216,23.6154811 C51.663827,23.6141838 52.5360432,24.6766703 52.1987459,25.715373" id="Fill-10" fill="#50A245"></path>
                <path d="M47.1252757,39.6604541 C47.3211676,39.9415351 47.1533838,40.2282378 47.1148973,40.5006703 C46.8031135,42.6848865 45.478573,44.0963459 43.3172757,44.5841297 C42.8515459,44.6892108 42.3741405,44.7821838 42.1536,45.2928865 C42.1501405,45.1251027 42.1436541,44.9564541 42.1436541,44.7882378 C42.1445189,44.2001297 42.3715459,43.9527784 43.1019243,43.7849946 C44.0290595,43.5726703 44.9012757,43.273427 45.6230054,42.6035892 C46.4891676,41.7984 46.9263568,40.7951568 47.1252757,39.6604541" id="Fill-12" fill="#50A245"></path>
                <path d="M26.0310919,39.6604541 C26.2256865,39.9674811 26.0596324,40.2801297 26.0094703,40.5728865 C25.6336865,42.7804541 24.3748757,44.0898595 22.1794162,44.5962378 C21.7249297,44.7008865 21.2713081,44.8029405 21.0594162,45.2946162 C21.0814703,44.9166703 20.9296865,44.5123459 21.2323892,44.1780757 C21.3824432,44.0128865 21.5528216,43.9004541 21.7824432,43.8425081 C22.4548757,43.6729946 23.1363892,43.5376432 23.7487135,43.1722378 C24.8769297,42.4989405 25.5787676,41.5272649 25.8896865,40.2606703 C25.9385514,40.0613189 25.9843892,39.8606703 26.0310919,39.6604541" id="Fill-14" fill="#50A245"></path>
                <path id="Fill-16" fill="#57AC46"></path>
            </g>
        </g>
    </g>
</svg>
